qaazqaaz/images/landing/shapes/3.svg

<?xml version="1.0" encoding="UTF-8"?>
<svg width="36px" height="36px" viewBox="0 0 36 36" version="1.1" xmlns="http://www.w3.org/2000/svg" xmlns:xlink="http://www.w3.org/1999/xlink">
    <!-- Generator: Sketch 47 (45396) - http://www.bohemiancoding.com/sketch -->
    <title>3</title>
    <desc>Created with Sketch.</desc>
    <defs></defs>
    <g id="Page-1" stroke="none" stroke-width="1" fill="none" fill-rule="evenodd">
        <g id="Desktop-HD-Copy-3" transform="translate(-1141.000000, -6618.000000)">
            <g id="3" transform="translate(1143.000000, 6620.000000)">
                <path d="M4.57142857,0.507936508 C7.11111111,0.253968254 14.0353662,-7.10542736e-15 16,-7.10542736e-15 C18.0561153,-7.10542736e-15 24.8888889,0.253968254 27.4285714,0.507936508 C29.968254,0.761904762 31.2380952,2.03174603 31.4920635,4.57142857 C31.7460317,7.11111111 32,13.9327933 32,16 C32,18.0750418 31.7460317,24.8888889 31.4920635,27.4285714 C31.2380952,29.968254 29.968254,31.2380952 27.4285714,31.4854218 C24.8888889,31.7327484 18.0859894,32 16,32 C13.9179304,32 7.15919577,31.7327484 4.5954709,31.4854218 C2.03174603,31.2380952 0.761904762,29.968254 0.507936508,27.1746032 C0.253968254,24.3809524 1.27897692e-13,18.0756392 1.27897692e-13,16 C1.27897692e-13,13.8743554 0.253968254,7.36507937 0.507936508,4.57142857 C0.761904762,1.77777778 2.03174603,0.761904762 4.57142857,0.507936508 Z" id="Rectangle-7-Copy-28" stroke="#000000" stroke-width="4" fill="#FFFFFF"></path>
                <path d="M19.4015748,11.408 L19.4015748,10 L12.5354331,10 L12.5354331,11.872 L16.519685,11.872 L13.2913386,15.616 L13.8897638,16.752 C14.3622047,16.496 14.8976378,16.368 15.480315,16.368 C16.8188976,16.368 17.7007874,17.088 17.7007874,18.224 C17.7007874,19.376 16.7716535,20.128 15.3070866,20.128 C14.2992126,20.128 13.4015748,19.792 12.8346457,19.168 L12,20.816 C12.7559055,21.568 14.1102362,22 15.5590551,22 C18.2677165,22 20,20.48 20,18.208 C20,16.16 18.5511811,14.688 16.3779528,14.656 L19.4015748,11.408 Z" fill="#000000"></path>
            </g>
        </g>
    </g>
</svg>

<svg width="36" height="36" xmlns="http://www.w3.org/2000/svg"><title>3</title><g id="Page-1" fill="none" fill-rule="evenodd"><g id="Desktop-HD-Copy-3" transform="translate(-1141 -6618)"><g id="3" transform="translate(1143 6620)"><path d="M4.571.508C7.111.254 14.035 0 16 0c2.056 0 8.889.254 11.429.508 2.54.254 3.81 1.524 4.063 4.063C31.746 7.111 32 13.933 32 16c0 2.075-.254 8.889-.508 11.429-.254 2.54-1.524 3.81-4.063 4.056-2.54.248-9.343.515-11.429.515-2.082 0-8.84-.267-11.405-.515-2.563-.247-3.833-1.517-4.087-4.31C.254 24.38 0 18.075 0 16c0-2.126.254-8.635.508-11.429C.762 1.778 2.032.761 4.57.508z" id="Rectangle-7-Copy-28" stroke="#000" stroke-width="4" fill="#FFF"/><path d="M19.402 11.408V10h-6.867v1.872h3.985l-3.229 3.744.599 1.136a3.299 3.299 0 0 1 1.59-.384c1.339 0 2.22.72 2.22 1.856 0 1.152-.928 1.904-2.393 1.904-1.008 0-1.905-.336-2.472-.96L12 20.816c.756.752 2.11 1.184 3.56 1.184 2.708 0 4.44-1.52 4.44-3.792 0-2.048-1.449-3.52-3.622-3.552l3.024-3.248z" fill="#000"/></g></g></g></svg>
